X:1
T:Title
%%score { ( 1 3 ) | ( 2 4 ) }
L:1/8
M:4/4
K:G
V:1 treble nm="Grand Piano"
V:3 treble 
V:2 bass 
V:4 bass 
V:1
 z4 z2[Q:1/4=100] (3DEF | G>E G>A G2 BB | d4 B2 (3DEF | G>E G>A G2 E2 | [CFA]6 (3DEF | %5
 G>E G>A G2 BB | d4 B2 G>A | B_B=BG [DGB]2 [CFA]2 |[M:2/4] [G,G]2- [G,-DG-][G,EG]- | %9
 [G,-EG-][G,-EG-] [G,DG]2 | GB _B=B |[M:6/4] G6- G2 z .G3 | .d12 | .B12 | .A12 | .G12 | .d12 | %17
 .B12 |[M:4/4] [G,G]2- [G,-DG-][G,EG]- [G,-EG-][G,-EG-] [G,DG]2 |] %19
V:2
 z4 z2 (3D,E,F, | G,>E, G,>A, G,2 B,2 | [G,B,G]4 [G,DG]2[K:bass] (3D,E,F, | G,>E, G,>A, G,2 E,2 | %4
 D,6 (3D,E,F, | G,>E, G,>A, G,2 B,2 | [G,B,G]4 [G,DG]2[K:bass] [G,B,D]>[F,A,^D] | %7
 [E,G,E][E,F,E][E,G,E][F,B,] D,2 D,2 |[M:2/4] z2 B,C- | CC B,2 | z4 | %11
[M:6/4] z2 [G,B,][C,C][C,C][C,C] G,,2 G,,B,,D,[K:treble][G,DG] | %12
 [G,B,G]2[K:bass] [G,B,] [D,A,]2 [D,A,] .[G,B,]6 | z2 G, [E,G,]2 [E,G,] G,2 G, F,2 C, | %14
 D,2 D, A,,2 A,, .D,6 | z2 [G,B,][C,C][C,C][C,C] G,,2 G,,B,,D,[K:treble][G,DG] | %16
 [G,B,G]2[K:bass] [G,B,] [D,A,]2 [D,A,] .[G,B,]6 | z6 z2 z .[D,D]3 | %18
[M:4/4] z2[K:treble] B,C- CC B,2 |] %19
V:3
 x8 | x8 | x8 | x8 | x8 | x8 | x8 | x8 |[M:2/4] B,2 z2 | x4 | x4 | %11
[M:6/4] z2 DEEE [B,D]2 [B,DG]D-[DFA]B | z2 G F2 F G2 GBAG | z2 D E2 E D2 [DGB] [DA]2 [^CEG] | %14
 [DF]2 [DF] [^CE]2 [CE] [DF]2 GB_B=B | z2 DEEE [B,D]2 [B,DG][DG][DFA]B | z2 G F2 F G2 GBAG | %17
 z2 EEEE E2 G[FA]B[CFA] |[M:4/4] B,2 z2 z4 |] %19
V:4
 x8 | x8 | x6[K:bass] x2 | x8 | x8 | x8 | x6[K:bass] x2 | x8 |[M:2/4] G,,4- | G,,4 | x4 | %11
[M:6/4] x11[K:treble] x | x2[K:bass] x10 | x12 | x12 | x11[K:treble] x | x2[K:bass] x10 | %17
 z2 G,[E,G,][E,G,][E,G,] [E,G,]2 .[E,B,]2 GD, |[M:4/4] G,,8[K:treble] |] %19

